!!!!SEGMENT: pl-kc--40102-iii-1-saf--001-023_zielenski-mikolaj--offertoria-totius-anni-in-festo-pentecostes-confirma-hoc-deus.krn
!!!cenid: 16xx:1501
!!!COM: Zieleński, Mikołaj
!!!COM-rismID: pe30013481
!!!CDT: <1611->1611
!!!CNT: Polish
!!!GTL: Offertoria totius anni
!!!OTL: In festo Pentecostes/Confirma hoc Deus
!!!OMV: 023
!!!PDT: 1611
!!!AGN: Sacred
!!!YEC: Copyright 2022 Narodowy Instytut Fryderyka Chopina (https://polishscores.org)
!!!YEM: License CC-BY-4.0 (https://creativecommons.org/licenses/by/4.0)
!!!SMS-siglum: PL-Kc
!!!SMS-shelfmark: 40102 III/1 Saf.
!!!SMS-shelfwork: 001-023 G
!!!SMS-variant:
!!!SMS-altvar:
!!!NIFC-rismSourceID: 990069886
!!!NIFC-rismChildID: 990069886
!!!NIFC-islandoraID: none
!!!URL-pdf-islandora:
!!!URL-scan: https://cyfrowe.mnk.pl/dlibra/publication/24235/edition/23926/content?ref=desc @EN{Scan on The National Museum in Krakow Website} @PL{Skany w portalu Biblioteka Cyfrowa Muzeum Narodowego w Krakowie}
!!!IIIF:
!!!ONB-nifc: UWAGA: str. 21-22. Uwaga: W xml metrum 2/1 do źródłowego C| i odpowiednio 3/1 do 3/2
!!!AIN: 4 organ
!!!key:
**kern	**kern	**kern	**kern
*group1	*group1	*group1	*group1
*part4	*part3	*part2	*part1
*staff4	*staff3	*staff2	*staff1
*I""Organo	*	*	*
*Iorgan	*Iorgan	*Iorgan	*Iorgan
*ICklav	*ICklav	*ICklav	*ICklav
*clefF4	*clefC1	*clefC4	*clefG2
*k[]	*k[]	*k[]	*k[]
*F:	*F:	*F:	*F:
*M2/1	*M2/1	*M2/1	*M2/1
*met(C|)	*met(C|)	*met(C|)	*met(C|)
=1	=1	=1	=1
!LO:TX:t=P:problem=all/middle&colon; global	!LO:TX:t=P:problem=all/middle&colon; global	!LO:TX:t=P:problem=all/middle&colon; global	!LO:TX:t=P:problem=all/middle&colon; global
!LO:TX:t=P:problem=all\middle&colon; global	!LO:TX:t=P:problem=all\middle&colon; global	!LO:TX:t=P:problem=all\middle&colon; global	!LO:TX:t=P:problem=all\middle&colon; global
!	!	!LO:TX:a:t=Confirma hoc Deus.	!LO:TX:a:t=In feſto Pentecoſtes.
*	*	*lig	*
00r	00r	1C	1cc
.	.	1G	1dd
*	*	*Xlig	*
=2-	=2-	=2-	=2-
*	*	*	*lig
.	.	2A/	1cc
.	.	2.F/	.
.	.	.	[y1ff
.	.	4G/	.
.	.	4A/	.
.	.	4F/	.
*	*	*	*Xlig
=3	=3	=3	=3
!	!	!	!LO:N:vis=4:xstem:cue
0r	0r	2B-X\	2ff]
.	.	2A/	2ff\
.	.	1d	1ff
=4-	=4-	=4-	=4-
1C	1g	1c	1ee
1FF	1a	1r	1r
=5	=5	=5	=5
*	*lig	*	*
2.C/	1g	00r	00r
4BB/	.	.	.
4AA/	1.cc	.	.
4BB/	.	.	.
4C/	.	.	.
!LO:TX:b:t=Paritura Nicolai Zielenski	!	!	!
4D/	.	.	.
*	*Xlig	*	*
=6-	=6-	=6-	=6-
2E\	.	.	.
2AA/	2cc\	.	.
1F	1cc	.	.
=7	=7	=7	=7
2E\	2cc\	00r	00r
2A\	2cc\	.	.
2.F\	2.cc\	.	.
4F\	4cc\	.	.
=8-	=8-	=8-	=8-
4G\	1b	.	.
4F\	.	.	.
4E\	.	.	.
4D/	.	.	.
2C/	1cc	.	.
4BB/	.	.	.
4AA/	.	.	.
=9	=9	=9	=9
2BB/	1dd	0r	0r
2BB/	.	.	.
2.AA/	2cc\	.	.
.	2.ee\	.	.
4BB/	.	.	.
=10-	=10-	=10-	=10-
*	*	*lig	*lig
2C/	.	1C	1cc
.	4dd\	.	.
!LO:TX:b:t=C 3	!	!	!
2C/	2.cc\	.	.
1GG	.	1G	1dd
.	8b\	.	.
.	8a\	.	.
.	2b\	.	.
*	*	*Xlig	*Xlig
*custos:C	*custos:cc	*custos:C	*custos:cc
!LO:PB:g=original	!LO:PB:g=original	!LO:PB:g=original	!LO:PB:g=original
=11	=11	=11	=11
1C	1cc	2C/	1cc
.	.	2.c\	.
*	*	*	*lig
1r	1r	.	1cc
.	.	4B\	.
.	.	4A/	.
.	.	4G/	.
=12-	=12-	=12-	=12-
0r	0r	4F/	1.ff
.	.	4D/	.
.	.	4d\	.
.	.	4c\	.
.	.	4B-X\	.
.	.	4A/	.
*	*	*	*Xlig
.	.	2B-\	2ff\
=13	=13	=13	=13
*lig	*lig	*	*
1FF	1cc	2A/	1ff
.	.	2A/	.
!LO:SIC:v:s:t=1BB-	!	!	!
1BB	1b-X	2.D/	1ff
.	.	4E/	.
*Xlig	*Xlig	*	*
=14-	=14-	=14-	=14-
2FF/	1.a	4F/	2r
.	.	4G/	.
2.F\	.	1A	2ff\
.	.	.	1ff
4E\	.	.	.
4D/	[<2dd\	2A/	.
4C/	.	.	.
=15	=15	=15	=15
2BB-X/	2dd]	2B-X\	1ff
2AA/	2.cc\	2c\	.
*	*	*	*lig
1D	.	1d	1gg
.	8b\	.	.
.	8a\	.	.
.	2b\	.	.
=16-	=16-	=16-	=16-
2C/	2cc\	2G/	1ee
2C/	2cc\	4c\	.
.	.	4Bny\	.
*	*	*	*Xlig
2FF/	2cc\	4A/	(>1ff
.	.	4G/	.
2FF/	2cc\	2F/	.
=17	=17	=17	=17
1C	2cc\	2C/	1gg)
.	2g\	4c\	.
.	.	4B\	.
2.D/	4d/	4A/	2ff\
.	4e/	4G/	.
.	4f/	1A\	2.aa\
4E\	4g/	.	.
=18-	=18-	=18-	=18-
2F\	4a\	.	.
.	4b\	.	4gg\
2FF/	1cc	2A/	1ff
[y1C	.	2E/	.
.	2cc\	[<2c\	4ee\
.	.	.	4dd\
=19	=19	=19	=19
!LO:N:vis=4:xstem:cue	!	!	!
2C]	1cc	2c\]	2ee\
2C/	.	2C/	2ee\
!	!LO:SIC:v:s:t=1b-	!	!
1FF	1b	2C/	2.ff\
.	.	2F/	.
.	.	.	4ff\
=20-	=20-	=20-	=20-
2r	2r	2c\	2ee\
2FF/	2cc\	2F/	2ff\
2C/	2cc\	2E/	2gg\
2F\	2a\	2F/	2ff\
=21	=21	=21	=21
2C/	2g/	2r	2r
2FF/	2a\	2F/	2ff\
2r	2r	2c\	2ee\
2FF/	2cc\	2F/	2ff\
=22-	=22-	=22-	=22-
2C/	2cc\	2E/	2gg\
2F\	2a\	2F/	2ff\
2C/	2g/	2r	2r
2FF/	2a\	2F/	2ff\
=23	=23	=23	=23
*	*	*	*lig
00r	00r	4D/	1ff
.	.	4E/	.
.	.	4F/	.
.	.	4G/	.
.	.	4A/	1ee
.	.	4B\	.
.	.	2.c\	.
*	*	*	*Xlig
=24-	=24-	=24-	=24-
*	*	*	*lig
.	.	.	1cc
.	.	4B\	.
.	.	4A/	.
.	.	4G/	.
.	.	4F/	1dd
.	.	4D/	.
.	.	[y2B\	.
*	*	*	*Xlig
=25	=25	=25	=25
*	*	*	*lig
!	!	!LO:N:xstem:cue	!
00r	00r	4B\]	1ff
.	.	8A/	.
.	.	8G/	.
.	.	4F/	.
.	.	4G/	.
.	.	2A/	1ee
.	.	2c\	.
*	*	*	*Xlig
=26-	=26-	=26-	=26-
.	.	1.G	1dd
.	.	.	1dd
.	.	2G/	.
=27	=27	=27	=27
2r	2r	1C	1cc
2C/	2cc\	.	.
*	*lig	*	*
4AA/	1cc	1r	1r
4BB/	.	.	.
4C/	.	.	.
4D/	.	.	.
=28-	=28-	=28-	=28-
4E\	1b	0r	0r
4F\	.	.	.
2.G\	.	.	.
*	*Xlig	*	*
.	1g	.	.
4F\	.	.	.
4E\	.	.	.
4D/	.	.	.
=29	=29	=29	=29
4C/	1a	00r	00r
4AA/	.	.	.
2.F\	.	.	.
*	*lig	*	*
.	1cc	.	.
8E\	.	.	.
8D\	.	.	.
4C/	.	.	.
4D/	.	.	.
=30-	=30-	=30-	=30-
2E\	1b	.	.
2G\	.	.	.
*	*Xlig	*	*
[>1D	1a	.	.
=31	=31	=31	=31
2D/]	1a	1r	1r
2D/	.	.	.
1GG	1g	2r	2r
.	.	2G/	2dd\
=32-	=32-	=32-	=32-
2r	2r	1G	1dd
2GG/	2g/	.	.
1GG	1g	2r	2r
.	.	2G/	2dd\
=33	=33	=33	=33
2r	2r	1.C	1ee
2CC/	2cc\	.	.
1C	1cc	.	2r
.	.	2C/	2ee\
=34-	=34-	=34-	=34-
2r	2r	1F	1ff
2FF/	2a\	.	.
1F	1a	2r	2r
.	.	2F/	2cc\
*custos:C	*custos:ee	*	*custos:ee
!LO:LB:g=original	!LO:LB:g=original	!LO:LB:g=original	!LO:LB:g=original
=35	=35	=35	=35
2r	2r	1c	1ee
2C/	2ee\	.	.
1E	1ee	2.G/	2.gg\
.	.	4G/	4gg\
=36-	=36-	=36-	=36-
2.G\	2.dd\	2G/	2dd\
.	.	2G/	2g/
4G\	4dd\	.	.
2G\	2dd\	2G/	1b
2GG/	2dd\	[<2G/	.
=37	=37	=37	=37
1BB	2dd\	2G/]	2.dd\
.	1g	2.D/	.
.	.	.	8cc\
.	.	.	8b\
2.D/	.	.	2a/
.	.	4E/	.
.	4f/	4F/	4d/
4D/	4e/	4G/	4e/
=38-	=38-	=38-	=38-
2D/	4d/	0A	4f/
.	4e/	.	4g/
2D/	4f/	.	4a/
.	4g/	.	4b/
[y1AA	[y1a	.	2cc#X\
.	.	.	[y2dd\
=39	=39	=39	=39
!LO:N:vis=4:xstem:cue	!LO:N:vis=4:xstem:cue	!	!LO:N:xstem:cue
2AA]	2a]	1A	4dd]
.	.	.	8cc#X\
.	.	.	8b\
2AA/	2a\	.	2cc#\
1DD	1a	1d	1dd
=40-	=40-	=40-	=40-
*M3/1	*M3/1	*M3/1	*M3/1
00.r	00.r	0G	0dd
.	.	1E	1gg
=41-	=41-	=41-	=41-
.	.	1.F	1.ff
.	.	2F/	2ff\
.	.	1C	1ee
=42	=42	=42	=42
00.r	00.r	0G	0dd
.	.	1E	1ee
=43-	=43-	=43-	=43-
.	.	0D	0ff
.	.	1D	1ff
=44-	=44-	=44-	=44-
1r	1r	0C	0ee
1C	1g	.	.
1AA	1a	1r	1r
=45-	=45-	=45-	=45-
1.D	1.f#X	0.r	0.r
2D/	2f#/	.	.
1BB	1g	.	.
=46	=46	=46	=46
0C	0e	00.r	00.r
1AA	1a	.	.
=47-	=47-	=47-	=47-
1.BB	0g	.	.
2C/	.	.	.
1D	1f#X	.	.
=48-	=48-	=48-	=48-
0.GG	0.g	0.r	0.r
=49-	=49-	=49-	=49-
0GG	0dd	0D	0gg
1DD	1dd	1D	1ff
=50	=50	=50	=50
1.AA	1.cc	1.E	1.ee
2AA/	2cc\	2E/	2ee\
1FF	1cc	1A	1ff
=51-	=51-	=51-	=51-
0GG	0b	0D	0dd
1CC	1cc	1C	1ee
=52	=52	=52	=52
*M2/1	*M2/1	*M2/1	*M2/1
*met(C|)	*met(C|)	*met(C|)	*met(C|)
1FF	1a	1C	4dd\
.	.	.	4cc\
.	.	.	2.cc\
1GG	1g	2.G/	.
.	.	.	8b/
.	.	.	8a/
.	.	.	2b/
.	.	4F/	.
=53	=53	=53	=53
*M3/1	*M3/1	*M3/1	*M3/1
!LO:TX:t=P:problem=brak oznaczenia zmiany metrum	!LO:TX:t=P:problem=brak oznaczenia zmiany metrum	!LO:TX:t=P:problem=brak oznaczenia zmiany metrum	!LO:TX:t=P:problem=brak oznaczenia zmiany metrum
1CC	1g	2E/	2cc\
.	.	2C/	2ee\
0r	0r	4E/	4.gg\
.	.	4E/	.
.	.	.	8gg\
.	.	4.G/	4dd\
.	.	.	4dd\
.	.	8G/	.
.	.	4D/	4.ff\
.	.	4D/	.
.	.	.	8ff\
.	.	2F/	4cc\
.	.	.	4cc\
=54	=54	=54	=54
1r	1r	1C	2ee\
.	.	.	2ee\
1r	2r	1G	1cc
.	2g/	.	.
2GG/	4.b\	1r	1r
.	8b\	.	.
4.BB/	4dd\	.	.
.	4dd\	.	.
8BB/	.	.	.
=55	=55	=55	=55
4D/	4.a\	0r	0r
4D/	.	.	.
.	8a\	.	.
4.AA/	4cc\	.	.
.	4cc\	.	.
8AA/	.	.	.
4.C/	4g/	.	.
.	4a\	.	.
8C/	.	.	.
4GG/	4b\	.	.
4AA/	4cc\	.	.
4BB/	4dd\	1r	1r
4C/	8cc\	.	.
.	8b\	.	.
4D/	4a\	.	.
8C/	4b\	.	.
8BB/	.	.	.
=56	=56	=56	=56
4AA/	4cc\	0r	0r
4BB/	8b\	.	.
.	8a\	.	.
4C/	4g/	.	.
8BB/	4a\	.	.
8AA/	.	.	.
2GG/	2b\	.	.
2D/	2.a\	.	.
2C/	.	1r	1r
.	4g/	.	.
2GG/	2.g/	.	.
=57	=57	=57	=57
*M2/1	*M2/1	*M2/1	*M2/1
*met(C|)	*met(C|)	*met(C|)	*met(C|)
!LO:TX:t=P:problem=brak oznaczenia zmiany metrum	!LO:TX:t=P:problem=brak oznaczenia zmiany metrum	!LO:TX:t=P:problem=brak oznaczenia zmiany metrum	!LO:TX:t=P:problem=brak oznaczenia zmiany metrum
2.D/	.	1r	1r
.	8f#X/	.	.
.	8e/	.	.
.	2f#/	.	.
4D/	.	.	.
1GG	1g	2r	2r
.	.	2G/	2dd\
*custos:FF	*custos:a	*custos:C	*custos:ee
!LO:LB:g=original	!LO:LB:g=original	!LO:LB:g=original	!LO:LB:g=original
=58	=58	=58	=58
2r	2r	4.C/	4.ee\
.	.	8C/	8ee\
4r	4r	2F/	2cc\
4FF/	4a\	.	.
4.F\	4.a\	4r	4r
.	.	4F/	4cc\
8F\	8a\	.	.
2D/	2a\	4.F/	4.ff\
.	.	8F/	8ff\
=59	=59	=59	=59
4r	4r	2G/	2dd\
4GG/	4b\	.	.
4.G\	4.b\	4r	4r
.	.	4G/	4dd\
8G\	8b\	.	.
2E\	2b\	4.G/	4.gg\
.	.	8G/	8gg\
4r	4r	2A/	2ee\
4AA/	4cc\	.	.
=60-	=60-	=60-	=60-
4.A\	4.cc\	4r	4r
.	.	4A/	4cc\
8A\	8cc\	.	.
2F\	2cc\	4.A/	4.ff\
.	.	8A/	8ff\
4r	4r	2c\	2ee\
4C/	4cc\	.	.
4.G\	4.b\	4r	4r
.	.	4B\	4dd\
8G\	8b\	.	.
=61	=61	=61	=61
2D/	2dd\	4.A/	4.dd\
.	.	8A/	8dd\
4r	4r	4G/	4dd\
4GG/	4dd\	4G/	4b/
2.C/	2.cc\	2.G/	2.cc\
4C/	4cc\	4G/	4cc\
=62-	=62-	=62-	=62-
2.GG/	1.b	2G/	2dd\
.	.	2D/	2.gg\
4FF/	.	.	.
2EE/	.	2.E/	.
.	.	.	4ff\
2CC/	[<2cc\	.	4ee\
.	.	4D/	4ff\
=63	=63	=63	=63
2CC/	2cc\]	1C	4ee\
.	.	.	4dd\
2CC/	2g/	.	2.cc\
1GG	1g	1D	.
.	.	.	8b/
.	.	.	8a/
.	.	.	2b/
=64-	=64-	=64-	=64-
0CC	2cc\	2C/	2cc\
.	1cc	4C/	1gg
.	.	4D/	.
.	.	4E/	.
.	.	4F/	.
.	2cc\	2G/	2ee\
=65	=65	=65	=65
1.FF	00cc\	0C	1ff
.	.	.	2ff\
2EE/	.	.	2gg\
=66-	=66-	=66-	=66-
0FF	.	0C	2.aa\
.	.	.	4gg\
.	.	.	4ff\
.	.	.	4cc\
.	.	.	1ff\
=67-	=67-	=67-	=67-
00CC	00cc\	00C/	.
.	.	.	4ee\
.	.	.	4dd\
.	.	.	[0eel
=68-	=68-	=68-	=68-
.	.	.	1ee]
==	==	==	==
*-	*-	*-	*-
!!!system-decoration: g1
!!!RDF**kern: l = terminal long
!!!RDF**kern: > = above
!!!RDF**kern: < = below
!!!ENC: Berenika Jozajtis
!!!END: 2012-12-18
!!!EED: Jędrzej Mróz
!!!EEV: 2021-12-22
